public/icons/circle.svg

<?xml version="1.0" encoding="UTF-8"?>
<svg width="193px" height="189px" viewBox="0 0 193 189" version="1.1" xmlns="http://www.w3.org/2000/svg" xmlns:xlink="http://www.w3.org/1999/xlink">
    <g stroke="none" stroke-width="1" fill="none" fill-rule="evenodd">
        <g fill="#FFFFFE">
            <path d="M95.8625801,149.16683 C97.8534015,149.16683 99.4672708,150.779669 99.4672708,152.768936 L99.4672708,185.358091 C99.4672708,187.347358 97.8534015,188.959967 95.8625801,188.959967 C93.8717587,188.959967 92.2578894,187.347358 92.2578894,185.358091 L92.2578894,152.768936 C92.2578894,150.779669 93.8717587,149.16683 95.8625801,149.16683 Z M120.063266,155.368376 L126.872739,176.309584 C127.487983,178.20159 126.451709,180.233523 124.558455,180.848287 C124.18839,180.968258 123.812815,181.025376 123.443898,181.025376 C121.924152,181.025376 120.511155,180.057581 120.016205,178.53581 L113.206732,157.594603 C112.591487,155.702597 113.627761,153.670434 115.521016,153.05567 C117.414959,152.440906 119.447792,153.4766 120.063266,155.368376 Z M73.2507311,162.711372 C75.1439858,163.326366 76.1802598,165.35807 75.5650151,167.250076 L73.5558281,173.428686 C73.0608776,174.950686 71.647881,175.918251 70.1281349,175.918251 C69.7589881,175.918251 69.383643,175.861133 69.0135779,175.741163 C67.1203232,175.126169 66.0840492,173.094465 66.6992938,171.202459 L68.7084808,165.023849 C69.3237255,163.132073 71.3574764,162.097526 73.2507311,162.711372 Z M59.9862381,142.513839 C61.5966639,143.683267 61.9536436,145.935644 60.7835309,147.545041 L43.9180218,170.740232 C43.2127861,171.710321 42.1136102,172.2253 40.9990531,172.2253 C40.2642031,172.2253 39.5229251,172.001416 38.8831166,171.537131 C37.2724611,170.367703 36.915711,168.115326 38.0855942,166.505929 L54.9511033,143.310738 C56.121216,141.701341 58.3755826,141.344869 59.9862381,142.513839 Z M124.938625,126.71027 L151.08239,162.665719 C152.252502,164.275117 151.895523,166.527493 150.285097,167.696922 C149.645059,168.161206 148.903781,168.385091 148.16916,168.385091 C147.054374,168.385091 145.955198,167.870111 145.249962,166.900022 L119.106198,130.944573 C117.936085,129.335175 118.293065,127.082799 119.90372,125.91337 C121.513916,124.744171 123.768512,125.100872 124.938625,126.71027 Z M84.97183,126.665993 C86.8650848,127.280528 87.9011292,129.312691 87.2861141,131.204697 L79.2840309,155.81247 C78.7890804,157.33447 77.3760838,158.302265 75.8565672,158.302265 C75.4871909,158.302265 75.1118457,158.245147 74.7417806,158.124947 C72.8485259,157.510182 71.8122519,155.478249 72.4274965,153.586243 L80.4293502,128.97847 C81.0448244,127.086694 83.0785753,126.051688 84.97183,126.665993 Z M24.1151794,145.273628 C25.2852921,146.882567 24.928542,149.135402 23.3178866,150.304372 L22.2157263,151.104713 C21.5761474,151.569227 20.8346398,151.793111 20.1000194,151.793111 C18.9852328,151.793111 17.8862865,151.278131 17.1810508,150.308042 C16.0107086,148.698874 16.3676882,146.446268 17.978114,145.277069 L19.0802743,144.476958 C20.690241,143.3073 22.9448371,143.663771 24.1151794,145.273628 Z M111.296039,128.406375 L116.469145,144.314775 C117.08416,146.20678 116.048115,148.238484 114.154861,148.853478 C113.784566,148.973678 113.409221,149.030796 113.040074,149.030796 C111.520558,149.030796 110.107561,148.063231 109.61261,146.541001 L104.439275,130.632831 C103.82426,128.740596 104.860305,126.708892 106.753559,126.093898 C108.647732,125.479593 110.680794,126.514599 111.296039,128.406375 Z M160.838381,135.568146 L170.405894,142.513835 C172.01655,143.683263 172.3733,145.93564 171.203417,147.545037 C170.497952,148.515126 169.398776,149.030106 168.284219,149.030106 C167.549598,149.030106 166.808091,148.806222 166.168282,148.341937 L156.600769,141.396019 C154.990343,140.22682 154.633363,137.974214 155.803476,136.365045 C156.973588,134.755877 159.227955,134.398947 160.838381,135.568146 Z M95.8625801,126.166846 C97.8534015,126.166846 99.4672708,127.779455 99.4672708,129.768722 L99.4672708,139.826769 C99.4672708,141.815806 97.8534015,143.428644 95.8625801,143.428644 C93.8717587,143.428644 92.2578894,141.815806 92.2578894,139.826769 L92.2578894,129.768722 C92.2578894,127.779455 93.8717587,126.166846 95.8625801,126.166846 Z M62.7702211,117.197019 C63.9401042,118.806417 63.5833541,121.058794 61.9726987,122.228222 L33.8583133,142.638624 C33.2185048,143.103138 32.4772268,143.326793 31.7423767,143.326793 C30.6278197,143.326793 29.5286438,142.811813 28.8234081,141.841954 C27.6532954,140.232556 28.010275,137.980179 29.6207009,136.810751 L57.7350863,116.400349 C59.3455122,115.23138 61.6001084,115.587851 62.7702211,117.197019 Z M71.8200595,126.238876 C73.4304853,127.408075 73.787465,129.660681 72.6173523,131.270079 L68.5131194,136.914669 C67.8078837,137.884758 66.7087078,138.399738 65.5939211,138.399738 C64.8593006,138.399738 64.1180226,138.176083 63.4782141,137.711569 C61.8675587,136.54237 61.510579,134.289764 62.6806917,132.680366 L66.7849246,127.035775 C67.9552669,125.426378 70.209404,125.069447 71.8200595,126.238876 Z M133.990532,116.077377 L150.285103,127.906771 C151.895528,129.07597 152.252508,131.328576 151.082395,132.937744 C150.37716,133.907833 149.277984,134.422813 148.163197,134.422813 C147.428577,134.422813 146.687299,134.199158 146.04749,133.734644 L129.75292,121.905479 C128.142265,120.736051 127.785515,118.483674 128.955398,116.874277 C130.12574,115.264879 132.379877,114.908178 133.990532,116.077377 Z M36.4343068,112.467467 C37.0495515,114.359243 36.0132774,116.391406 34.1197931,117.005941 L11.6082666,124.314524 C11.2384311,124.434494 10.8628564,124.491612 10.4939392,124.491612 C8.97442263,124.491612 7.56119647,123.523818 7.06624591,122.001817 C6.45100126,120.109812 7.48727528,118.077878 9.38075958,117.463114 L31.8922861,110.154761 C33.7850817,109.539997 35.8188326,110.575691 36.4343068,112.467467 Z M151.837447,107.235324 L172.849201,114.057371 C174.742455,114.671906 175.7785,116.704069 175.163485,118.596074 C174.668305,120.118074 173.255308,121.08564 171.735791,121.08564 C171.366645,121.08564 170.991299,121.028522 170.621005,120.908551 L149.609481,114.086733 C147.716226,113.471969 146.679952,111.440035 147.295197,109.54803 C147.910671,107.656024 149.944651,106.621706 151.837447,107.235324 Z M62.3436824,104.055064 C62.9589271,105.94707 61.9226531,107.979233 60.0293983,108.593768 L46.9104538,112.853303 C46.5401591,112.973274 46.164814,113.030392 45.7956672,113.030392 C44.2761506,113.030392 42.863154,112.062597 42.3682035,110.540827 C41.7529588,108.648821 42.7892328,106.616658 44.6824876,106.002124 L57.8014321,101.742588 C59.6956051,101.127823 61.7286674,102.163518 62.3436824,104.055064 Z M133.923491,101.419608 L141.132643,103.76007 C143.025898,104.374834 144.062172,106.406768 143.446927,108.298773 C142.951977,109.820774 141.53898,110.788568 140.019464,110.788568 C139.650087,110.788568 139.275201,110.73145 138.904907,110.61125 L131.695754,108.270788 C129.8025,107.656024 128.766226,105.62409 129.38147,103.732085 C129.996715,101.840309 132.030236,100.805532 133.923491,101.419608 Z M23.6135719,89.5709418 C25.6043934,89.5709418 27.2182628,91.1835508 27.2182628,93.1728176 C27.2182628,95.1620844 25.6043934,96.7746934 23.6135719,96.7746934 L3.79098628,96.7746934 C1.8001648,96.7746934 0.186065872,95.1620844 0.186065872,93.1728176 C0.186065872,91.1835508 1.8001648,89.5709418 3.79098628,89.5709418 L23.6135719,89.5709418 Z M58.9146109,89.5709418 C60.9054323,89.5709418 62.5193016,91.1835508 62.5193016,93.1728176 C62.5193016,95.1620844 60.9054323,96.7746934 58.9146109,96.7746934 L35.8199807,96.7746934 C33.8291592,96.7746934 32.21529,95.1620844 32.21529,93.1728176 C32.21529,91.1835508 33.8291592,89.5709418 35.8199807,89.5709418 L58.9146109,89.5709418 Z M169.569342,89.2477323 C171.560163,89.2477323 173.174262,90.8605708 173.174262,92.8498377 C173.174262,94.8388752 171.560163,96.4517137 169.569342,96.4517137 L132.81077,96.4517137 C130.819948,96.4517137 129.206079,94.8388752 129.206079,92.8498377 C129.206079,90.8605708 130.819948,89.2477323 132.81077,89.2477323 L169.569342,89.2477323 Z M189.197259,89.2477323 C191.188081,89.2477323 192.802179,90.8605708 192.802179,92.8498377 C192.802179,94.8388752 191.188081,96.4517137 189.197259,96.4517137 L182.493848,96.4517137 C180.503026,96.4517137 178.889157,94.8388752 178.889157,92.8498377 C178.889157,90.8605708 180.503026,89.2477323 182.493848,89.2477323 L189.197259,89.2477323 Z M52.8202463,75.4111806 L60.0293984,77.751643 C61.9226531,78.3664073 62.9589271,80.3983406 62.3436824,82.2903463 C61.8487319,83.8123465 60.4357353,84.7801414 58.9162188,84.7801414 C58.5468425,84.7801414 58.1717269,84.7230234 57.8016618,84.6028232 L50.5925098,82.2623608 C48.6992551,81.6478259 47.6629811,79.6156632 48.2782257,77.7236575 C48.8934703,75.8318812 50.9272212,74.7968752 52.8202463,75.4111806 Z M149.357178,75.4818299 C149.972423,77.3738356 148.936378,79.4057689 147.042894,80.0205331 L133.923721,84.2798398 C133.553656,84.40004 133.178081,84.457158 132.809164,84.457158 C131.289418,84.457158 129.876421,83.4893632 129.38147,81.9673629 C128.766226,80.0753573 129.8025,78.0434239 131.695754,77.4286597 L144.814928,73.169353 C146.70933,72.5543594 148.742163,73.590283 149.357178,75.4818299 Z M21.1043847,65.1138787 L42.1159087,71.9359265 C44.0091635,72.5504614 45.0454375,74.5826242 44.4301928,76.4746299 C43.9352423,77.9966302 42.5220161,78.9641957 41.0024995,78.9641957 C40.6333526,78.9641957 40.2580075,78.9070777 39.8879424,78.7871069 L18.8761889,71.9652884 C16.9829341,71.3505242 15.9468896,69.3185907 16.5619047,67.426585 C17.1773789,65.5345793 19.2111299,64.4998026 21.1043847,65.1138787 Z M184.462173,64.0846104 C185.077418,65.9763868 184.041144,68.0085495 182.147659,68.6230844 L159.833103,75.8676678 C159.463268,75.987868 159.087693,76.044986 158.718776,76.044986 C157.199259,76.044986 155.786033,75.0771911 155.291083,73.5549615 C154.675838,71.6631852 155.712112,69.6312518 157.605596,69.0164876 L179.920152,61.7719041 C181.813637,61.1571399 183.846928,62.1926047 184.462173,64.0846104 Z M45.6781289,52.2877897 L61.9722403,64.1171836 C63.5828956,65.2863825 63.9396457,67.5389887 62.7697626,69.148157 C62.0642974,70.1182457 60.9651215,70.6332254 59.8505646,70.6332254 C59.1159441,70.6332254 58.3744366,70.4093412 57.7346281,69.9450565 L41.4405167,58.115892 C39.8298614,56.9464637 39.4728817,54.6940869 40.6429944,53.0846893 C41.813107,51.4752916 44.0674736,51.1190495 45.6781289,52.2877897 Z M162.901976,44.1806986 C164.072088,45.7898669 163.715109,48.042473 162.104683,49.211672 L133.990297,69.6220732 C133.350489,70.0863578 132.608981,70.3102421 131.874361,70.3102421 C130.759804,70.3102421 129.660628,69.7952624 128.955163,68.8251736 C127.785279,67.2160053 128.142029,64.9633992 129.752685,63.7942002 L157.86707,43.383799 C159.477267,42.2146001 161.731863,42.5710715 162.901976,44.1806986 Z M45.491028,17.7683182 L72.6191859,55.0778534 C73.7892987,56.6872511 73.432319,58.9396279 71.8216635,60.1090562 C71.181855,60.5735702 70.440577,60.7972251 69.7059565,60.7972251 C68.5911699,60.7972251 67.4919939,60.2822454 66.7867582,59.3121566 L39.6586003,22.0026214 C38.4884875,20.3932238 38.8454672,18.140847 40.4558931,16.9714187 C42.066319,15.8024491 44.3206857,16.1586912 45.491028,17.7683182 Z M126.800888,50.300357 C128.411314,51.4697854 128.768293,53.7221622 127.598181,55.3315598 L124.940462,58.9868836 C124.235226,59.956743 123.13605,60.4717227 122.021264,60.4717227 C121.286643,60.4717227 120.545365,60.2480678 119.905327,59.7835538 C118.294901,58.6141255 117.937922,56.3617487 119.108034,54.7525804 L121.765753,51.0972566 C122.935866,49.4880884 125.190232,49.1316169 126.800888,50.300357 Z M82.2179215,39.5557466 L87.2861141,55.1409373 C87.9011292,57.032943 86.8650848,59.0648764 84.97183,59.6796406 C84.6015354,59.7996114 84.2261902,59.8567294 83.8570435,59.8567294 C82.3375269,59.8567294 80.9245303,58.8891639 80.4293502,57.3671637 L75.3613871,41.781973 C74.746372,39.8899673 75.7824165,37.8578045 77.6756712,37.2430403 C79.5696146,36.6287349 81.6029064,37.6639703 82.2179215,39.5557466 Z M116.983609,27.8974771 C118.876864,28.5122413 119.913138,30.5441746 119.297893,32.4361802 L111.296039,57.0441819 C110.800859,58.5661821 109.387863,59.5337475 107.868346,59.5337475 C107.499199,59.5337475 107.123854,59.4766295 106.753559,59.3566587 C104.860305,58.7418945 103.82426,56.7099612 104.439275,54.8179555 L112.441359,30.2099539 C113.056603,28.3181776 115.090354,27.283401 116.983609,27.8974771 Z M95.8625801,17.3102269 C97.8534015,17.3102269 99.4672708,18.9228361 99.4672708,20.912103 L99.4672708,55.9309537 C99.4672708,57.9202206 97.8534015,59.5328298 95.8625801,59.5328298 C93.8717587,59.5328298 92.2578894,57.9202206 92.2578894,55.9309537 L92.2578894,20.912103 C92.2578894,18.9228361 93.8717587,17.3102269 95.8625801,17.3102269 Z M24.9581568,37.2455613 L35.1246151,44.6264022 C36.7350409,45.7958306 37.0920205,48.0482074 35.9219079,49.6576051 C35.2166722,50.6274645 34.1174964,51.1424442 33.0029394,51.1424442 C32.2680894,51.1424442 31.5268115,50.9187893 30.887003,50.4542753 L20.7205447,43.0734344 C19.1098894,41.9042354 18.7529098,39.6516292 19.9230224,38.0424609 C21.0933646,36.4330632 23.3475015,36.0765917 24.9581568,37.2455613 Z M152.84227,14.485294 C154.452925,15.6547223 154.809676,17.907099 153.639792,19.5164966 L133.47951,47.2425907 C132.774275,48.2126794 131.675099,48.7276591 130.560542,48.7276591 C129.825692,48.7276591 129.084414,48.5037748 128.444605,48.0394902 C126.83395,46.8700619 126.47697,44.6176852 127.647083,43.0082877 L147.807365,15.2821936 C148.977477,13.672796 151.231844,13.3163245 152.84227,14.485294 Z M73.4506855,12.5937476 L78.6237908,28.5023776 C79.2390354,30.3943833 78.2027615,32.4263167 76.3095069,33.0410809 C75.9394418,33.1612811 75.5638671,33.2183991 75.1949499,33.2183991 C73.6754335,33.2183991 72.2622074,32.2506042 71.7672569,30.728604 L66.5941516,14.819974 C65.978907,12.9279682 67.015181,10.8960349 68.9084356,10.2812706 C70.8026084,9.6667358 72.8354409,10.7022006 73.4506855,12.5937476 Z M122.711803,10.2812705 C124.605058,10.896264 125.641332,12.9279679 125.026088,14.8199736 L123.016901,20.9985831 C122.52195,22.5205832 121.108953,23.4883781 119.589437,23.4883781 C119.220061,23.4883781 118.844715,23.43126 118.47465,23.3110599 C116.581396,22.6960663 115.545122,20.6643624 116.160366,18.7723568 L118.169553,12.5937473 C118.785027,10.7022004 120.818549,9.66765322 122.711803,10.2812705 Z M95.8625801,0.071596743 C97.8534015,0.071596743 99.4672708,1.68420581 99.4672708,3.67347263 L99.4672708,7.75890185 C99.4672708,9.74816867 97.8534015,11.3607777 95.8625801,11.3607777 C93.8717587,11.3607777 92.2578894,9.74816867 92.2578894,7.75890185 L92.2578894,3.67347263 C92.2578894,1.68420581 93.8717587,0.071596743 95.8625801,0.071596743 Z"></path>
        </g>
    </g>
</svg>

<svg width="193" height="189" viewBox="0 0 193 189" xmlns="http://www.w3.org/2000/svg"><path d="M95.863 149.167a3.603 3.603 0 013.604 3.602v32.59a3.603 3.603 0 01-3.604 3.601 3.603 3.603 0 01-3.605-3.602v-32.59a3.603 3.603 0 013.605-3.601zm24.2 6.201l6.81 20.942a3.601 3.601 0 01-3.43 4.715 3.606 3.606 0 01-3.427-2.49l-6.81-20.94a3.605 3.605 0 016.857-2.226zm-46.812 7.343a3.601 3.601 0 012.314 4.54l-2.01 6.178a3.606 3.606 0 01-4.541 2.312 3.601 3.601 0 01-2.315-4.539l2.01-6.178a3.606 3.606 0 014.542-2.313zm-13.265-20.197a3.6 3.6 0 01.798 5.031L43.918 170.74a3.6 3.6 0 01-2.919 1.485 3.6 3.6 0 01-2.913-5.72l16.865-23.194a3.607 3.607 0 015.035-.797zm64.953-15.804l26.143 35.956a3.6 3.6 0 01-2.913 5.72 3.6 3.6 0 01-2.919-1.486l-26.144-35.955a3.6 3.6 0 01.798-5.032 3.606 3.606 0 015.035.797zm-39.967-.044a3.601 3.601 0 012.314 4.539l-8.002 24.607a3.606 3.606 0 01-4.542 2.313 3.601 3.601 0 01-2.315-4.539l8.002-24.608a3.606 3.606 0 014.543-2.312zm-60.857 18.608a3.6 3.6 0 01-.797 5.03l-1.102.8a3.6 3.6 0 01-5.035-.797 3.6 3.6 0 01.797-5.03l1.102-.8a3.606 3.606 0 015.035.797zm87.181-16.868l5.173 15.909a3.602 3.602 0 01-3.429 4.716 3.606 3.606 0 01-3.427-2.49l-5.174-15.908a3.606 3.606 0 016.857-2.226zm49.542 7.162l9.568 6.946a3.6 3.6 0 01-2.122 6.516 3.592 3.592 0 01-2.116-.688l-9.567-6.946a3.6 3.6 0 01-.798-5.031 3.607 3.607 0 015.035-.797zm-64.975-9.401a3.603 3.603 0 013.604 3.602v10.058a3.603 3.603 0 01-3.604 3.602 3.603 3.603 0 01-3.605-3.602v-10.058a3.603 3.603 0 013.605-3.602zm-33.093-8.97a3.6 3.6 0 01-.797 5.031l-28.115 20.41a3.59 3.59 0 01-2.116.689 3.6 3.6 0 01-2.121-6.516l28.114-20.41a3.607 3.607 0 015.035.796zm9.05 9.042a3.6 3.6 0 01.797 5.031l-4.104 5.645a3.6 3.6 0 01-2.92 1.485 3.6 3.6 0 01-2.913-5.72l4.105-5.644a3.606 3.606 0 015.035-.797zm62.17-10.162l16.295 11.83a3.6 3.6 0 01-2.122 6.516 3.59 3.59 0 01-2.116-.688l-16.294-11.83a3.6 3.6 0 01-.798-5.03 3.607 3.607 0 015.036-.798zm-97.556-3.61a3.601 3.601 0 01-2.314 4.539l-22.512 7.309a3.606 3.606 0 01-4.542-2.313 3.601 3.601 0 012.315-4.539l22.511-7.308a3.606 3.606 0 014.542 2.312zm115.403-5.232l21.012 6.822a3.601 3.601 0 11-2.228 6.852l-21.012-6.822a3.601 3.601 0 112.228-6.852zm-89.493-3.18a3.601 3.601 0 01-2.315 4.539l-13.119 4.26a3.606 3.606 0 01-4.542-2.312 3.601 3.601 0 012.314-4.54l13.12-4.26a3.605 3.605 0 014.542 2.313zm71.58-2.635l7.209 2.34a3.601 3.601 0 11-2.228 6.851l-7.21-2.34a3.601 3.601 0 112.228-6.851zM23.613 89.57a3.603 3.603 0 013.604 3.603 3.603 3.603 0 01-3.604 3.602H3.79a3.603 3.603 0 01-3.605-3.602 3.603 3.603 0 013.605-3.602h19.823zm35.3 0a3.603 3.603 0 013.605 3.603 3.603 3.603 0 01-3.604 3.602H35.82a3.603 3.603 0 01-3.605-3.602 3.603 3.603 0 013.605-3.602h23.095zm110.655-.322a3.604 3.604 0 013.605 3.602 3.604 3.604 0 01-3.605 3.602H132.81a3.603 3.603 0 01-3.605-3.602 3.603 3.603 0 013.605-3.602h36.758zm19.628 0a3.604 3.604 0 013.605 3.602 3.604 3.604 0 01-3.605 3.602h-6.703a3.603 3.603 0 01-3.605-3.602 3.603 3.603 0 013.605-3.602h6.703zM52.82 75.41l7.21 2.34a3.601 3.601 0 11-2.228 6.852l-7.21-2.34a3.601 3.601 0 112.228-6.852zm96.537.07a3.601 3.601 0 01-2.314 4.54l-13.12 4.259a3.604 3.604 0 01-4.542-2.313 3.601 3.601 0 012.315-4.538l13.119-4.26a3.605 3.605 0 014.542 2.313zM21.104 65.115l21.012 6.822a3.601 3.601 0 11-2.228 6.851l-21.012-6.822a3.602 3.602 0 112.228-6.851zm163.358-1.03a3.601 3.601 0 01-2.314 4.54l-22.315 7.244a3.601 3.601 0 01-4.542-2.313 3.601 3.601 0 012.315-4.539l22.314-7.244a3.605 3.605 0 014.542 2.313zM45.678 52.289l16.294 11.83a3.6 3.6 0 01-2.121 6.515 3.592 3.592 0 01-2.116-.688L41.44 58.115a3.6 3.6 0 01-.798-5.03 3.607 3.607 0 015.035-.797zm117.224-8.107a3.6 3.6 0 01-.797 5.03L133.99 69.623a3.601 3.601 0 11-4.238-5.828l28.115-20.41a3.606 3.606 0 015.035.797zM45.491 17.768l27.128 37.31a3.6 3.6 0 01-2.913 5.72 3.6 3.6 0 01-2.92-1.486L39.66 22.002a3.6 3.6 0 01.797-5.03 3.607 3.607 0 015.035.796zm81.31 32.532a3.6 3.6 0 01.797 5.032l-2.658 3.655a3.6 3.6 0 01-2.919 1.485 3.6 3.6 0 01-2.913-5.72l2.658-3.655a3.607 3.607 0 015.035-.797zM82.218 39.556l5.068 15.585a3.602 3.602 0 01-3.429 4.716 3.606 3.606 0 01-3.428-2.49l-5.068-15.585a3.606 3.606 0 016.857-2.226zm34.766-11.659a3.601 3.601 0 012.314 4.54l-8.002 24.607a3.606 3.606 0 01-4.542 2.313 3.602 3.602 0 01-2.315-4.539l8.002-24.608a3.606 3.606 0 014.543-2.313zM95.863 17.31a3.603 3.603 0 013.604 3.602v35.019a3.603 3.603 0 01-3.604 3.602 3.603 3.603 0 01-3.605-3.602V20.912a3.603 3.603 0 013.605-3.602zM24.958 37.246l10.167 7.38a3.6 3.6 0 01-2.122 6.516 3.59 3.59 0 01-2.116-.688l-10.166-7.38a3.6 3.6 0 01-.798-5.032 3.607 3.607 0 015.035-.796zm127.884-22.76a3.6 3.6 0 01.798 5.03l-20.16 27.727a3.6 3.6 0 01-2.92 1.485 3.6 3.6 0 01-2.913-5.72l20.16-27.726a3.607 3.607 0 015.035-.797zm-79.391-1.892l5.173 15.908a3.601 3.601 0 01-3.43 4.716 3.606 3.606 0 01-3.427-2.49L66.594 14.82a3.605 3.605 0 016.857-2.226zm49.26-2.313a3.601 3.601 0 012.315 4.539l-2.01 6.179a3.606 3.606 0 01-4.541 2.312 3.601 3.601 0 01-2.315-4.539l2.01-6.178a3.607 3.607 0 014.542-2.313zM95.864.071a3.603 3.603 0 013.604 3.602V7.76a3.603 3.603 0 01-3.604 3.602 3.603 3.603 0 01-3.605-3.602V3.673A3.603 3.603 0 0195.863.072z" fill="#FFF" fill-rule="evenodd"/></svg>
